public/avatar/body/116.svg

<svg xmlns:xlink="http://www.w3.org/1999/xlink" height="82" width="84.85" xmlns="http://www.w3.org/2000/svg"><use height="41.45" transform="translate(22.2 23.95)" width="39.2" xlink:href="#a"/><defs><g id="a" fill-rule="evenodd"><path d="M10.15-17.3q1.1.35 1.6 1.75 1.35-.15 2.05.45v.05q.95.7.9 2.25l1.15.35.5.35q.55.6.4 1.8 1.5.25 1.9 1.2l-.05-.1q.65.8.05 2.9l1.15.65.35.35q.35.4.3 1.15l1-.55.65-.1.6.3q1.25 1.25.3 3.65l.5.25.3.55q.65 3.1-1.1 4.95l.2.8q.15 1-.2 1.85l-.55.55-.15.05q-1.4 4.2-2.5 5.75l.2.25.05.8-.4 1.25-.2.35q-.6.7-1.55.75l-.1.8-.2.55q-.6.9-2.55.75-.35 1.05-1.05 1.45l-2.45.15q-.75 1.45-1.7 1.65-.95.4-2.65-.55-1.25 1.1-2.35 1.05l-.45-.1L2.05 22Q.2 23.1-.8 22.65l-.5-.35-1-1.35-2.6-.1-.35-.4-.5-1.1q-2.15.25-2.75-.7l-.25-.6-.05-.75q-1-.05-1.55-.8l-.15-.3-.25-.75v-.75l.15-.2q-1.15-1.3-2.05-4.75l.05-.45-.3-.2-.85-1.15-.05-.05q-.45-1.05-.35-2.15V5.7l.25-.75q-1.85-1.9-1.1-5l.25-.5.45-.25.1-.05q-1-2.4.2-3.65l.5-.3.6.05q.4.1 1.25.6-.05-.75.25-1.1l.4-.45 1.2-.6q-.65-2.1 0-2.9v.1q.35-.95 1.9-1.2-.25-1.15.3-1.75l.55-.4 1.15-.35q-.05-1.55.9-2.25l.05-.05q.65-.6 2.05-.45l.05-.1q.6-1.35 1.55-1.65l.4-.1 1.95.1.85-.8.45-.2h.45l1.55.4 1.7-.4.6.05 1.2.95 1.85-.1.45.1" fill="#463213" transform="translate(15.2 18.3)"/><path d="m12.95-14.4.5.8q.3.7.2 1.5l1.9.6-.15 2.1.6.05q1.2.15 1.95 1.15l-.55 2.35 1.9 1.05-.5 2.55 3.15-1.6q.75 1.8-.2 3.55L20.6 1.05l.85-.25L22.8.15q.65 2.55-1.2 4.4l-.75.5.75.1q.75 1.6-.45 2.85l-.95.75q.15 4.1-2.05 7.35l-1.15.15-.35.3L16.5 18l-.4.25-1.9.05-.75 1.55-2.9.25-1.15 1.6-.4.15-.35-.1L7 21l-.45.1q-1.9 1.8-4.15.3l-.65-.4-.35.3q-.55.5-1.25.5l-.65-.1-1.1-1.55-2.75-.15-.7-1.5-2.7-.5-.05-1.45-.35-.3-1.15-.15q-1.45-3.55-2.05-7.1l-1.35-1.85-.45-.85.5-1.1.2-.1q-1.9-2-1.6-4.95l2.3.95q-2-1.8-1.65-4.3l.15-.65 3.1 1.75-.4-2.7q1-.5 1.95-1.05l-.35-2.8 2.35-.75-.3-1.7 2.05-1 .15-1.05.35-1.15 2-.15 1.4-1.95 2.35.1 1.15-1.05h3.7L7.4-16.3l2.35-.1.45.25q.55.35.7 1.05l.1.55 1.95.15" fill="#eaa73e" transform="translate(15.2 18.3)"/><path d="m20.45 9-1.15 4.5-.85 2.1q-.45.65-1.65.65-.5.55-.65 1.8-1 .9-2.05.15l-1.05-1.8q-.9-1.5-1.8-2.15 2.9-.45 2.7-4.05l1.8-.45q.25-.25.3-1.55.05-1.45 1.8-2.1l2.05-1q1.35-.5 1.7.6.3 1.05-1.15 3.3m-2.9-16.15q-.15 1.25-.4 1.2 2.4.35 2.55 1.65.05.75-1.4 2.2-1.4 1.45-3.95 1.15.55-.3.95-1.25.4-1 .1-1.55l.75-1.5-.6-1.65.1-.6.3-.75q0-.65-.95-1.6l1.55.25q.75.2 1.05 1l-.05 1.45" fill="#d29538" transform="translate(15.2 18.3)"/><path d="m-1.4 20.65-.55-.65-1 .45-1.4-.2-.85-1.55h-1.25l-.7-1.05q.15-.9.65-1.55l.8-.7.9-1.9 1.7-.15q.75-1.1 1.95-1.45l1.55-.65q3.85-2.45 7.4.2l.65.05q2.35-.45 3.2 1.75l1.05-.1q-.95 2.65-3.8 3.05l-.6.35q-1.75 4.4-5.95 2.3-1.5 2.3-3.75 1.8" fill="#ffdfb1" transform="translate(15.2 18.3)"/><path d="M-1.4 20.65q2.25.5 3.75-1.8 4.2 2.1 5.95-2.3l.6-.35q2.85-.4 3.8-3.05l.45.1.7.9q1.15 1.6 1.85 3.55l-.35.95-1.65.2v.95l-.45.3-2.55.1-.3.75-3.7.2-1.7.95-3-.95-.45.3-2.35.15-.95-1.25.35.3" fill="#ecc492" transform="translate(15.2 18.3)"/></g></defs></svg>

<?xml version="1.0" encoding="UTF-8" standalone="no"?>
<svg xmlns:xlink="http://www.w3.org/1999/xlink" height="82.0px" width="84.85px" xmlns="http://www.w3.org/2000/svg">
  <g transform="matrix(1.0, 0.0, 0.0, 1.0, 37.4, 42.25)">
    <use height="41.45" transform="matrix(1.0, 0.0, 0.0, 1.0, -15.2, -18.3)" width="39.2" xlink:href="#shape0"/>
  </g>
  <defs>
    <g id="shape0" transform="matrix(1.0, 0.0, 0.0, 1.0, 15.2, 18.3)">
      <path d="M10.15 -17.3 Q11.25 -16.95 11.75 -15.55 13.1 -15.7 13.8 -15.1 L13.8 -15.05 Q14.75 -14.35 14.7 -12.8 L15.85 -12.45 16.35 -12.1 Q16.9 -11.5 16.75 -10.3 18.25 -10.05 18.65 -9.1 L18.6 -9.2 Q19.25 -8.4 18.65 -6.3 L19.8 -5.65 20.15 -5.3 Q20.5 -4.9 20.45 -4.15 L21.45 -4.7 22.1 -4.8 22.7 -4.5 Q23.95 -3.25 23.0 -0.85 L23.5 -0.6 23.8 -0.05 Q24.45 3.05 22.7 4.9 L22.9 5.7 Q23.05 6.7 22.7 7.55 L22.15 8.1 22.0 8.15 Q20.6 12.35 19.5 13.9 L19.7 14.15 19.75 14.95 19.35 16.2 19.15 16.55 Q18.55 17.25 17.6 17.3 L17.5 18.1 17.3 18.65 Q16.7 19.55 14.75 19.4 14.4 20.45 13.7 20.85 L11.25 21.0 Q10.5 22.45 9.55 22.65 8.6 23.05 6.9 22.1 5.65 23.2 4.55 23.15 L4.1 23.05 2.05 22.0 Q0.2 23.1 -0.8 22.65 L-1.3 22.3 -2.3 20.95 -4.9 20.85 -5.25 20.45 -5.75 19.35 Q-7.9 19.6 -8.5 18.65 L-8.75 18.05 -8.8 17.3 Q-9.8 17.25 -10.35 16.5 L-10.5 16.2 -10.75 15.45 -10.75 14.7 -10.6 14.5 Q-11.75 13.2 -12.65 9.75 L-12.6 9.3 -12.9 9.1 -13.75 7.95 -13.8 7.9 Q-14.25 6.85 -14.15 5.75 L-14.15 5.7 -13.9 4.95 Q-15.75 3.05 -15.0 -0.05 L-14.75 -0.55 -14.3 -0.8 -14.2 -0.85 Q-15.2 -3.25 -14.0 -4.5 L-13.5 -4.8 -12.9 -4.75 Q-12.5 -4.65 -11.65 -4.15 -11.7 -4.9 -11.4 -5.25 L-11.0 -5.7 -9.8 -6.3 Q-10.45 -8.4 -9.8 -9.2 L-9.8 -9.1 Q-9.45 -10.05 -7.9 -10.3 -8.15 -11.45 -7.6 -12.05 L-7.05 -12.45 -5.9 -12.8 Q-5.95 -14.35 -5.0 -15.05 L-4.95 -15.1 Q-4.3 -15.7 -2.9 -15.55 L-2.85 -15.65 Q-2.25 -17.0 -1.3 -17.3 L-0.9 -17.4 1.05 -17.3 1.9 -18.1 2.35 -18.3 2.8 -18.3 4.35 -17.9 6.05 -18.3 6.65 -18.25 7.85 -17.3 9.7 -17.4 10.15 -17.3" fill="#463213" fill-rule="evenodd" stroke="none"/>
      <path d="M12.95 -14.4 L13.45 -13.6 Q13.75 -12.9 13.65 -12.1 L15.55 -11.5 15.4 -9.4 16.0 -9.35 Q17.2 -9.2 17.95 -8.2 L17.4 -5.85 19.3 -4.8 18.8 -2.25 21.95 -3.85 Q22.7 -2.05 21.75 -0.3 L20.6 1.05 21.45 0.8 22.8 0.15 Q23.45 2.7 21.6 4.55 L20.85 5.05 21.6 5.15 Q22.35 6.75 21.15 8.0 L20.2 8.75 Q20.35 12.85 18.15 16.1 L17.0 16.25 16.65 16.55 16.5 18.0 16.1 18.25 14.2 18.3 13.45 19.85 10.55 20.1 9.4 21.7 9.0 21.85 8.65 21.75 7.0 21.0 6.55 21.1 Q4.65 22.9 2.4 21.4 L1.75 21.0 1.4 21.3 Q0.85 21.8 0.15 21.8 L-0.5 21.7 -1.6 20.15 -4.35 20.0 -5.05 18.5 -7.75 18.0 -7.8 16.55 -8.15 16.25 -9.3 16.1 Q-10.75 12.55 -11.35 9.0 L-12.7 7.15 -13.15 6.3 -12.65 5.2 -12.45 5.1 Q-14.35 3.1 -14.05 0.15 L-11.75 1.1 Q-13.75 -0.7 -13.4 -3.2 L-13.25 -3.85 -10.15 -2.1 -10.55 -4.8 Q-9.55 -5.3 -8.6 -5.85 L-8.95 -8.65 -6.6 -9.4 -6.9 -11.1 -4.85 -12.1 -4.7 -13.15 -4.35 -14.3 -2.35 -14.45 -0.95 -16.4 1.4 -16.3 2.55 -17.35 6.25 -17.35 7.4 -16.3 9.75 -16.4 10.2 -16.15 Q10.75 -15.8 10.9 -15.1 L11.0 -14.55 12.95 -14.4" fill="#eaa73e" fill-rule="evenodd" stroke="none"/>
      <path d="M20.45 9.0 L19.3 13.5 18.45 15.6 Q18.0 16.25 16.8 16.25 16.3 16.8 16.15 18.05 15.15 18.95 14.1 18.2 L13.05 16.4 Q12.15 14.9 11.25 14.25 14.15 13.8 13.95 10.2 L15.75 9.75 Q16.0 9.5 16.05 8.2 16.1 6.75 17.85 6.1 L19.9 5.1 Q21.25 4.6 21.6 5.7 21.9 6.75 20.45 9.0" fill="#d29538" fill-rule="evenodd" stroke="none"/>
      <path d="M17.55 -7.15 Q17.4 -5.9 17.15 -5.95 19.55 -5.6 19.7 -4.3 19.75 -3.55 18.3 -2.1 16.9 -0.65 14.35 -0.95 14.9 -1.25 15.3 -2.2 15.7 -3.2 15.4 -3.75 L16.15 -5.25 15.55 -6.9 15.65 -7.5 15.95 -8.25 Q15.95 -8.9 15.0 -9.85 L16.55 -9.6 Q17.3 -9.4 17.6 -8.6 L17.55 -7.15" fill="#d29538" fill-rule="evenodd" stroke="none"/>
      <path d="M-1.4 20.65 L-1.95 20.0 -2.95 20.45 -4.35 20.25 -5.2 18.7 -6.45 18.7 -7.15 17.65 Q-7.0 16.75 -6.5 16.1 L-5.7 15.4 -4.8 13.5 -3.1 13.35 Q-2.35 12.25 -1.15 11.9 L0.4 11.25 Q4.25 8.8 7.8 11.45 L8.45 11.5 Q10.8 11.05 11.65 13.25 L12.7 13.15 Q11.75 15.8 8.9 16.2 L8.3 16.55 Q6.55 20.95 2.35 18.85 0.85 21.15 -1.4 20.65" fill="#ffdfb1" fill-rule="evenodd" stroke="none"/>
      <path d="M-1.4 20.65 Q0.85 21.15 2.35 18.85 6.55 20.95 8.3 16.55 L8.9 16.2 Q11.75 15.8 12.7 13.15 L13.15 13.25 13.85 14.15 Q15.0 15.75 15.7 17.7 L15.35 18.65 13.7 18.85 13.7 19.8 13.25 20.1 10.7 20.2 10.4 20.95 6.7 21.15 5.0 22.1 2.0 21.15 1.55 21.45 -0.8 21.6 -1.75 20.35 -1.4 20.65" fill="#ecc492" fill-rule="evenodd" stroke="none"/>
    </g>
  </defs>
</svg>
